src/pos-icons/podium-bronze.svg

<svg height="24" viewBox="0 0 24 24" width="24" xmlns="http://www.w3.org/2000/svg"><path d="m4 13.09 2.45 1.49-.65-2.81 2.2-1.88-2.89-.25-1.11-2.64-1.13 2.64-2.87.25 2.18 1.88-.68 2.81zm3 9.91h-6v-6h6zm2-13v13h6v-13zm4 11h-2v-9h2zm4-8v10h6v-10zm4 8h-2v-6h2z"/></svg>

<?xml version="1.0" encoding="UTF-8"?><!DOCTYPE svg PUBLIC "-//W3C//DTD SVG 1.1//EN" "http://www.w3.org/Graphics/SVG/1.1/DTD/svg11.dtd"><svg xmlns="http://www.w3.org/2000/svg" xmlns:xlink="http://www.w3.org/1999/xlink" version="1.1" id="mdi-podium-bronze" width="24" height="24" viewBox="0 0 24 24"><path d="M4,13.09L6.45,14.58L5.8,11.77L8,9.89L5.11,9.64L4,7L2.87,9.64L0,9.89L2.18,11.77L1.5,14.58L4,13.09M7,23H1V17H7V23M9,10V23H15V10H9M13,21H11V12H13V21M17,13V23H23V13H17M21,21H19V15H21V21Z" /></svg>
